inst/assets/svg/wi-dust.svg

<?xml version="1.0" encoding="UTF-8"?>
<svg xmlns="http://www.w3.org/2000/svg" xmlns:xlink="http://www.w3.org/1999/xlink" width="30pt" height="30pt" viewBox="0 0 30 30" version="1.1">
<g id="surface221">
<path style=" stroke:none;fill-rule:nonzero;fill:rgb(0%,0%,0%);fill-opacity:1;" d="M 7.328125 16.578125 C 7.328125 16.351563 7.410156 16.171875 7.558594 16.019531 C 7.71875 15.871094 7.929688 15.800781 8.199219 15.800781 L 13.910156 15.800781 C 14.179688 15.800781 14.390625 15.871094 14.550781 16.019531 C 14.710938 16.171875 14.78125 16.351563 14.78125 16.578125 C 14.78125 16.851563 14.699219 17.070313 14.550781 17.21875 C 14.398438 17.371094 14.179688 17.449219 13.910156 17.449219 L 8.199219 17.449219 C 7.929688 17.449219 7.71875 17.371094 7.558594 17.21875 C 7.398438 17.070313 7.328125 16.859375 7.328125 16.578125 Z M 7.328125 10.671875 C 7.328125 10.449219 7.410156 10.261719 7.558594 10.121094 C 7.71875 9.96875 7.929688 9.898438 8.199219 9.898438 L 11.160156 9.898438 C 11.429688 9.898438 11.640625 9.96875 11.800781 10.121094 C 11.960938 10.261719 12.039063 10.449219 12.039063 10.671875 C 12.039063 10.941406 11.960938 11.148438 11.800781 11.308594 C 11.640625 11.46875 11.429688 11.550781 11.160156 11.550781 L 8.199219 11.550781 C 7.929688 11.550781 7.71875 11.46875 7.558594 11.320313 C 7.398438 11.171875 7.328125 10.941406 7.328125 10.671875 Z M 8.320313 19.539063 C 8.320313 19.320313 8.410156 19.121094 8.601563 18.941406 C 8.78125 18.761719 8.988281 18.660156 9.199219 18.660156 C 9.460938 18.660156 9.660156 18.75 9.820313 18.929688 C 9.980469 19.109375 10.058594 19.308594 10.058594 19.539063 C 10.058594 19.808594 9.980469 20.03125 9.828125 20.191406 C 9.679688 20.351563 9.46875 20.421875 9.199219 20.421875 C 8.96875 20.421875 8.761719 20.339844 8.589844 20.179688 C 8.398438 20.011719 8.320313 19.800781 8.320313 19.539063 Z M 9.738281 13.609375 C 9.738281 13.378906 9.808594 13.171875 9.960938 13 C 10.109375 12.820313 10.289063 12.730469 10.5 12.730469 C 10.761719 12.730469 10.980469 12.820313 11.140625 13 C 11.300781 13.179688 11.378906 13.378906 11.378906 13.609375 C 11.378906 13.878906 11.300781 14.101563 11.148438 14.261719 C 10.988281 14.421875 10.78125 14.488281 10.5 14.488281 C 10.269531 14.488281 10.089844 14.410156 9.949219 14.25 C 9.808594 14.089844 9.738281 13.878906 9.738281 13.609375 Z M 10.730469 19.539063 C 10.730469 19.308594 10.808594 19.101563 10.96875 18.929688 C 11.128906 18.761719 11.351563 18.660156 11.609375 18.660156 L 15.441406 18.660156 L 16.320313 19.539063 C 16.320313 19.800781 16.230469 20.011719 16.050781 20.179688 C 15.871094 20.351563 15.671875 20.421875 15.441406 20.421875 L 11.609375 20.421875 C 11.339844 20.421875 11.121094 20.339844 10.960938 20.179688 C 10.800781 20.019531 10.730469 19.808594 10.730469 19.539063 Z M 12.050781 13.609375 C 12.050781 13.390625 12.140625 13.191406 12.328125 13.011719 C 12.511719 12.828125 12.71875 12.730469 12.929688 12.730469 L 16.761719 12.730469 C 17.019531 12.730469 17.230469 12.820313 17.390625 13 C 17.550781 13.179688 17.628906 13.378906 17.628906 13.609375 C 17.628906 13.878906 17.550781 14.101563 17.398438 14.261719 C 17.238281 14.421875 17.03125 14.488281 16.761719 14.488281 L 12.929688 14.488281 C 12.699219 14.488281 12.488281 14.410156 12.320313 14.25 C 12.140625 14.089844 12.050781 13.878906 12.050781 13.609375 Z M 12.808594 10.671875 C 12.808594 10.449219 12.890625 10.261719 13.050781 10.121094 C 13.210938 9.980469 13.421875 9.898438 13.691406 9.898438 L 19.398438 9.898438 C 19.628906 9.898438 19.828125 9.980469 20.011719 10.128906 C 20.191406 10.28125 20.28125 10.460938 20.28125 10.671875 C 20.28125 10.929688 20.191406 11.148438 20.011719 11.308594 C 19.828125 11.46875 19.628906 11.550781 19.398438 11.550781 L 13.691406 11.550781 C 13.421875 11.550781 13.199219 11.46875 13.039063 11.308594 C 12.878906 11.148438 12.808594 10.941406 12.808594 10.671875 Z M 15.441406 16.578125 C 15.441406 16.371094 15.53125 16.179688 15.710938 16.03125 C 15.890625 15.878906 16.089844 15.800781 16.320313 15.800781 C 16.550781 15.800781 16.75 15.878906 16.929688 16.03125 C 17.109375 16.179688 17.199219 16.371094 17.199219 16.578125 C 17.199219 16.839844 17.109375 17.050781 16.929688 17.210938 C 16.75 17.371094 16.550781 17.449219 16.320313 17.449219 C 16.089844 17.449219 15.878906 17.371094 15.710938 17.210938 C 15.53125 17.058594 15.441406 16.851563 15.441406 16.578125 Z M 16.980469 19.539063 C 16.980469 19.308594 17.058594 19.101563 17.21875 18.929688 C 17.378906 18.75 17.589844 18.660156 17.851563 18.660156 L 19.71875 18.660156 C 19.980469 18.660156 20.191406 18.75 20.351563 18.921875 C 20.511719 19.089844 20.589844 19.300781 20.589844 19.539063 C 20.589844 19.808594 20.511719 20.03125 20.359375 20.191406 C 20.210938 20.351563 19.988281 20.421875 19.71875 20.421875 L 17.851563 20.421875 C 17.578125 20.421875 17.371094 20.339844 17.210938 20.191406 C 17.058594 20.03125 16.980469 19.808594 16.980469 19.539063 Z M 17.851563 16.578125 C 17.851563 16.371094 17.941406 16.179688 18.121094 16.03125 C 18.300781 15.878906 18.5 15.800781 18.730469 15.800781 L 21.800781 15.800781 C 22.019531 15.800781 22.199219 15.878906 22.339844 16.03125 C 22.480469 16.179688 22.558594 16.359375 22.558594 16.578125 C 22.558594 16.851563 22.488281 17.058594 22.351563 17.21875 C 22.210938 17.378906 22.03125 17.449219 21.800781 17.449219 L 18.730469 17.449219 C 18.5 17.449219 18.289063 17.371094 18.121094 17.210938 C 17.941406 17.058594 17.851563 16.851563 17.851563 16.578125 Z M 18.289063 13.609375 C 18.289063 13.390625 18.378906 13.191406 18.570313 13.011719 C 18.75 12.828125 18.960938 12.730469 19.171875 12.730469 L 21.128906 12.730469 C 21.339844 12.730469 21.519531 12.820313 21.671875 13 C 21.820313 13.179688 21.898438 13.378906 21.898438 13.609375 C 21.898438 13.878906 21.828125 14.089844 21.679688 14.25 C 21.539063 14.410156 21.351563 14.488281 21.128906 14.488281 L 19.171875 14.488281 C 18.941406 14.488281 18.730469 14.410156 18.558594 14.25 C 18.378906 14.089844 18.289063 13.878906 18.289063 13.609375 Z M 21.03125 10.671875 C 21.03125 10.449219 21.101563 10.269531 21.25 10.121094 C 21.398438 9.96875 21.578125 9.898438 21.800781 9.898438 C 22.070313 9.898438 22.28125 9.96875 22.441406 10.121094 C 22.601563 10.261719 22.679688 10.449219 22.679688 10.671875 C 22.679688 10.941406 22.601563 11.148438 22.441406 11.308594 C 22.28125 11.46875 22.070313 11.550781 21.800781 11.550781 C 21.570313 11.550781 21.390625 11.46875 21.25 11.308594 C 21.101563 11.148438 21.03125 10.941406 21.03125 10.671875 Z M 21.03125 10.671875 "/>
</g>
</svg>

<?xml version="1.0" encoding="utf-8"?>
<!-- Generator: Adobe Illustrator 22.0.1, SVG Export Plug-In . SVG Version: 6.00 Build 0)  -->
<svg version="1.1" id="Layer_1" xmlns="http://www.w3.org/2000/svg" xmlns:xlink="http://www.w3.org/1999/xlink" x="0px" y="0px"
	 viewBox="0 0 30 30" style="enable-background:new 0 0 30 30;" xml:space="preserve">
<path d="M7.33,16.58c0-0.23,0.08-0.41,0.23-0.56c0.16-0.15,0.37-0.22,0.64-0.22h5.71c0.27,0,0.48,0.07,0.64,0.22
	c0.16,0.15,0.23,0.33,0.23,0.56c0,0.27-0.08,0.49-0.23,0.64s-0.37,0.23-0.64,0.23H8.2c-0.27,0-0.48-0.08-0.64-0.23
	S7.33,16.86,7.33,16.58z M7.33,10.67c0-0.22,0.08-0.41,0.23-0.55C7.72,9.97,7.93,9.9,8.2,9.9h2.96c0.27,0,0.48,0.07,0.64,0.22
	c0.16,0.14,0.24,0.33,0.24,0.55c0,0.27-0.08,0.48-0.24,0.64c-0.16,0.16-0.37,0.24-0.64,0.24H8.2c-0.27,0-0.48-0.08-0.64-0.23
	S7.33,10.94,7.33,10.67z M8.32,19.54c0-0.22,0.09-0.42,0.28-0.6c0.18-0.18,0.39-0.28,0.6-0.28c0.26,0,0.46,0.09,0.62,0.27
	s0.24,0.38,0.24,0.61c0,0.27-0.08,0.49-0.23,0.65c-0.15,0.16-0.36,0.23-0.63,0.23c-0.23,0-0.44-0.08-0.61-0.24
	C8.4,20.01,8.32,19.8,8.32,19.54z M9.74,13.61c0-0.23,0.07-0.44,0.22-0.61c0.15-0.18,0.33-0.27,0.54-0.27
	c0.26,0,0.48,0.09,0.64,0.27c0.16,0.18,0.24,0.38,0.24,0.61c0,0.27-0.08,0.49-0.23,0.65c-0.16,0.16-0.37,0.23-0.65,0.23
	c-0.23,0-0.41-0.08-0.55-0.24S9.74,13.88,9.74,13.61z M10.73,19.54c0-0.23,0.08-0.44,0.24-0.61s0.38-0.27,0.64-0.27h3.83l0.88,0.88
	c0,0.26-0.09,0.47-0.27,0.64s-0.38,0.24-0.61,0.24h-3.83c-0.27,0-0.49-0.08-0.65-0.24S10.73,19.81,10.73,19.54z M12.05,13.61
	c0-0.22,0.09-0.42,0.28-0.6c0.18-0.18,0.39-0.28,0.6-0.28h3.83c0.26,0,0.47,0.09,0.63,0.27c0.16,0.18,0.24,0.38,0.24,0.61
	c0,0.27-0.08,0.49-0.23,0.65c-0.16,0.16-0.37,0.23-0.64,0.23h-3.83c-0.23,0-0.44-0.08-0.61-0.24
	C12.14,14.09,12.05,13.88,12.05,13.61z M12.81,10.67c0-0.22,0.08-0.41,0.24-0.55c0.16-0.14,0.37-0.22,0.64-0.22h5.71
	c0.23,0,0.43,0.08,0.61,0.23c0.18,0.15,0.27,0.33,0.27,0.54c0,0.26-0.09,0.48-0.27,0.64c-0.18,0.16-0.38,0.24-0.61,0.24h-5.71
	c-0.27,0-0.49-0.08-0.65-0.24C12.88,11.15,12.81,10.94,12.81,10.67z M15.44,16.58c0-0.21,0.09-0.4,0.27-0.55
	c0.18-0.15,0.38-0.23,0.61-0.23s0.43,0.08,0.61,0.23c0.18,0.15,0.27,0.34,0.27,0.55c0,0.26-0.09,0.47-0.27,0.63
	c-0.18,0.16-0.38,0.24-0.61,0.24c-0.23,0-0.44-0.08-0.61-0.24C15.53,17.06,15.44,16.85,15.44,16.58z M16.98,19.54
	c0-0.23,0.08-0.44,0.24-0.61c0.16-0.18,0.37-0.27,0.63-0.27h1.87c0.26,0,0.47,0.09,0.63,0.26c0.16,0.17,0.24,0.38,0.24,0.62
	c0,0.27-0.08,0.49-0.23,0.65c-0.15,0.16-0.37,0.23-0.64,0.23h-1.87c-0.27,0-0.48-0.08-0.64-0.23
	C17.06,20.03,16.98,19.81,16.98,19.54z M17.85,16.58c0-0.21,0.09-0.4,0.27-0.55c0.18-0.15,0.38-0.23,0.61-0.23h3.07
	c0.22,0,0.4,0.08,0.54,0.23c0.14,0.15,0.22,0.33,0.22,0.55c0,0.27-0.07,0.48-0.21,0.64c-0.14,0.16-0.32,0.23-0.55,0.23h-3.07
	c-0.23,0-0.44-0.08-0.61-0.24C17.94,17.06,17.85,16.85,17.85,16.58z M18.29,13.61c0-0.22,0.09-0.42,0.28-0.6
	c0.18-0.18,0.39-0.28,0.6-0.28h1.96c0.21,0,0.39,0.09,0.54,0.27c0.15,0.18,0.23,0.38,0.23,0.61c0,0.27-0.07,0.48-0.22,0.64
	c-0.14,0.16-0.33,0.24-0.55,0.24h-1.96c-0.23,0-0.44-0.08-0.61-0.24C18.38,14.09,18.29,13.88,18.29,13.61z M21.03,10.67
	c0-0.22,0.07-0.4,0.22-0.55C21.4,9.97,21.58,9.9,21.8,9.9c0.27,0,0.48,0.07,0.64,0.22c0.16,0.14,0.24,0.33,0.24,0.55
	c0,0.27-0.08,0.48-0.24,0.64c-0.16,0.16-0.37,0.24-0.64,0.24c-0.23,0-0.41-0.08-0.55-0.24C21.1,11.15,21.03,10.94,21.03,10.67z"/>
</svg>
